images/svg/icons/social/spotify_hover.svg

<?xml version="1.0" encoding="UTF-8" standalone="no"?>
<svg width="40px" height="40px" viewBox="0 0 40 40" version="1.1" xmlns="http://www.w3.org/2000/svg" xmlns:xlink="http://www.w3.org/1999/xlink">
    <!-- Generator: Sketch 39.1 (31720) - http://www.bohemiancoding.com/sketch -->
    <title>spotify_hover</title>
    <desc>Created with Sketch.</desc>
    <defs>
        <rect id="path-1" x="-2.24519074e-15" y="-1.10200628e-15" width="40" height="40"></rect>
        <path d="M17.1982353,8.29809955 C17.0605882,8.24446456 16.8464706,8.17550528 16.64,8.07589744 C12.9770588,6.26763198 9.15352941,6.06075415 5.21529412,6.87294118 C5.08529412,6.8959276 4.96294118,6.93423831 4.83294118,6.95722474 C4.22117647,7.07215686 3.69352941,6.94956259 3.53294118,6.27529412 C3.37235294,5.60102564 3.78529412,5.24090498 4.38176471,5.06467572 C5.63588235,4.69689291 6.93588235,4.52066365 8.23588235,4.49001508 C11.3558824,4.40573152 14.4147059,4.75819005 17.2517647,6.18334842 C17.5423529,6.32892911 17.8329412,6.48983409 18.07,6.70437406 C18.3911765,6.99553544 18.4294118,7.39396682 18.2382353,7.78473605 C18.0547059,8.16784314 17.7258824,8.35939668 17.1982353,8.29809955 L17.1982353,8.29809955 Z" id="path-2"></path>
        <path d="M8.97764706,7.96862745 C11.4858824,8.0146003 13.8794118,8.51263952 16.1047059,9.72325792 C16.6094118,9.99909502 17.1294118,10.320905 16.7852941,11.0028356 C16.4335294,11.6924284 15.8829412,11.4625641 15.3629412,11.186727 C12.2964706,9.56235294 9.06941176,9.25586727 5.71235294,10.0144193 C5.62058824,10.0374057 5.52117647,10.05273 5.42941176,10.0757164 C4.90941176,10.1829864 4.40470588,10.16 4.25941176,9.53936652 C4.11411765,8.94171946 4.49647059,8.65055807 5.03176471,8.50497738 C6.31647059,8.15251885 7.63941176,7.99927602 8.97764706,7.96862745 L8.97764706,7.96862745 Z" id="path-3"></path>
        <path d="M9.32176471,11.4702262 C11.1647059,11.4932127 13.1223529,11.8993062 14.9194118,12.918371 C15.3247059,13.1482353 15.7988235,13.4087481 15.4929412,13.9680845 C15.2023529,14.5044344 14.7282353,14.3128808 14.3,14.0830166 C11.7152941,12.6425339 8.96235294,12.5812368 6.14058824,13.1022624 C5.94941176,13.1405732 5.75823529,13.186546 5.56705882,13.2095324 C5.13882353,13.2784917 4.74882353,13.1788839 4.65705882,12.7038311 C4.55764706,12.2057919 4.92470588,11.998914 5.33764706,11.9222926 C6.59176471,11.6694419 7.84588235,11.5008748 9.32176471,11.4702262 L9.32176471,11.4702262 Z" id="path-4"></path>
    </defs>
    <g id="Icons" stroke="none" stroke-width="1" fill="none" fill-rule="evenodd">
        <g id="Social-media-Icons_new" transform="translate(-77.000000, -1896.000000)">
            <g id="spotify_hover" transform="translate(77.000000, 1896.000000)">
                <g id="bg">
                    <use fill="#7DC112" xlink:href="#path-1"></use>
                    <use fill-opacity="0.25" fill="#000000" xlink:href="#path-1"></use>
                </g>
                <g id="icon" transform="translate(10.000000, 10.000000)">
                    <path d="M9.81117647,0.00766214178 C14.8123529,9.19377421e-14 18.7811765,2.80434389 20.2188235,6.94956259 C21.6411765,11.0488084 20.3182353,15.7150528 17.0376471,18.3968024 C16.4947059,18.8412066 16.2729412,18.7875716 15.8523529,18.2512217 C12.8317647,14.4048265 7.05823529,13.6539367 3.14294118,16.6191855 C2.53882353,17.078914 2.30941176,16.9409955 1.96529412,16.4123077 C-0.298235294,12.9566817 -0.657647059,9.32482655 1.23117647,5.64699849 C3.12,1.9615083 6.28588235,0.153242836 9.81117647,0.00766214178 L9.81117647,0.00766214178 Z" id="Shape" fill="#FEFEFE"></path>
                    <path d="M5.45235294,19.4848265 C7.34117647,17.507994 10.9123529,17.7301961 12.4341176,19.8679336 C12.6329412,20.1437707 12.9847059,20.480905 12.3117647,20.5958371 C9.90294118,21.024917 7.62411765,20.6877828 5.45235294,19.4848265 L5.45235294,19.4848265 Z" id="Shape" fill="#FDFEFD"></path>
                    <g id="Shape">
                        <use fill="#7DC112" xlink:href="#path-2"></use>
                        <use fill-opacity="0.25" fill="#000000" xlink:href="#path-2"></use>
                    </g>
                    <g id="Shape">
                        <use fill="#7DC112" xlink:href="#path-3"></use>
                        <use fill-opacity="0.25" fill="#000000" xlink:href="#path-3"></use>
                    </g>
                    <g id="Shape">
                        <use fill="#7DC112" xlink:href="#path-4"></use>
                        <use fill-opacity="0.25" fill="#000000" xlink:href="#path-4"></use>
                    </g>
                </g>
            </g>
        </g>
    </g>
</svg>

<svg width="40" height="40" viewBox="0 0 40 40" xmlns="http://www.w3.org/2000/svg" xmlns:xlink="http://www.w3.org/1999/xlink"><title>spotify_hover</title><defs><path id="a" d="M0 0h40v40H0z"/><path d="M17.198 8.298c-.137-.054-.352-.122-.558-.222C12.977 6.268 9.154 6.06 5.215 6.873c-.13.023-.252.06-.382.084-.612.115-1.14-.007-1.3-.682-.16-.674.252-1.034.85-1.21 1.253-.368 2.553-.544 3.853-.575 3.12-.084 6.18.268 9.016 1.693.29.146.58.307.818.52.32.293.36.69.168 1.082-.183.383-.512.574-1.04.513z" id="b"/><path d="M8.978 7.97c2.508.045 4.9.543 7.127 1.753.504.276 1.024.598.68 1.28-.35.69-.902.46-1.422.184-3.067-1.625-6.294-1.93-9.65-1.173-.092.023-.192.04-.284.062-.52.107-1.025.084-1.17-.537-.146-.598.236-.89.772-1.035C6.316 8.153 7.64 8 8.978 7.97z" id="c"/><path d="M9.322 11.47c1.843.023 3.8.43 5.597 1.448.405.23.88.49.573 1.05-.29.536-.765.345-1.193.115-2.585-1.44-5.338-1.502-8.16-.98-.19.038-.382.084-.573.107-.428.068-.818-.03-.91-.506-.1-.498.268-.705.68-.782 1.255-.253 2.51-.42 3.985-.452z" id="d"/></defs><g fill="none" fill-rule="evenodd"><g><use fill="#7DC112" xlink:href="#a"/><use fill-opacity=".25" fill="#000" xlink:href="#a"/></g><path d="M19.81 10.008c5.002-.008 8.97 2.796 10.41 6.942 1.42 4.1.098 8.765-3.182 11.447-.543.444-.765.39-1.186-.146-3.02-3.845-8.794-4.596-12.71-1.63-.603.46-.833.32-1.177-.208-2.263-3.455-2.623-7.087-.734-10.765 1.89-3.685 5.056-5.494 8.58-5.64z" fill="#FEFEFE"/><path d="M15.452 29.485c1.89-1.977 5.46-1.755 6.982.383.2.276.55.613-.122.728-2.41.43-4.688.092-6.86-1.11z" fill="#FDFEFD"/><g transform="translate(10 10)"><use fill="#7DC112" xlink:href="#b"/><use fill-opacity=".25" fill="#000" xlink:href="#b"/></g><g transform="translate(10 10)"><use fill="#7DC112" xlink:href="#c"/><use fill-opacity=".25" fill="#000" xlink:href="#c"/></g><g transform="translate(10 10)"><use fill="#7DC112" xlink:href="#d"/><use fill-opacity=".25" fill="#000" xlink:href="#d"/></g></g></svg>
